X:1
T:Ljubici
T:Emil Adamič (1877-1936)
T:Fran Levstik
T:Ljubici
T:Copyright ©
T:Copyright ©
T:Copyright ©
T:Copyright ©
T:Copyright ©
C:Emil Adamič
C:(1877-1936)
Z:Fran Levstik
Z:Copyright ©
%%score [ ( 1 2 3 ) ( 4 5 ) ]
L:1/8
M:9/8
K:F
V:1 treble-8 transpose=-12 nm="T."
V:2 treble-8 transpose=-12 
V:3 treble-8 transpose=-12 
V:4 bass nm="B."
V:5 bass 
V:1
!mf!"^z iskrenim občutkom" c3 | A2 c f3- f2 f |!<(! fef!<)! g3!>(! c2!>)! B | %3
w: |||
w: Da|jaz i- mel _ _|_ _ _ _ _ _|
!<(! A2 d d3-!<)! d2 d | dc!>(!B (A3 c2)!>)! c | (d2 c) =B3 Bc=d | %6
w: |||
w: |||
"^rit.""^rit."!<(! c2 d!<)!!>(! e3!>)! A2 c |!<(! ca_a!<)!!ff! g3- g2!p! c | %8
w: ||
w: ||
 ce!>(!d c3- c2!>)!"^hitrejše" c ||[M:3/4]!mf! _d>E E2 E2 |!<(! _e>!<)!e!>(! e2!>)! _AA | %11
w: |||
w: |||
!<(! d>_e!<)! f2 f2 | (f2 _e2)!>(! _d2!>)! | c2 z2 c2 | c>F F2 F2 | f>_e!>(! e2 _d!>)!c | %16
w: |||||
w: |||||
 B3 B =BB | c4 c2 | (!tenuto!c2 !tenuto!f2)!ff!"^počasi" !tenuto!_a2 | _a4 g2 | !fermata!g6 || %21
w: to, vse to mi|v\_tvo- jo,|v\_tvo- * jo|v\_tvo- jo|last!|
w: |||||
[M:9/8]!mf!"^Vznešeno" !tenuto!c!tenuto!=B!<(!!tenuto!c |!f! (2:3:2(ag) f3!<)!!<(! (Ac)!<)!^c | %23
w: ||
w: ||
!>(! [^ce]3!>)! d2 z !tenuto!d!tenuto!c!tenuto!d | (2:3:2ba g3 (fB)_d | %25
w: |* * * te _ bi|
w: ||
"^accel.""^accel."!>(! (f3!>)! e2) z !tenuto!c!tenuto!=B!tenuto!c | a3 f3 ^f^ef | %27
w: v\dar _ _ _ _|_ _ _ _ _|
w: ||
!>(! a3!>)! f2"^počasi""^počasi" z !tenuto!^g!tenuto!g!tenuto!g |!fff! a3!<(! e3 (^ce)!<)!!fff!a | %29
w: ||
w: ||
 (!fermata!a3!ppp! !fermata!=g2) z"^A tempo" !tenuto!c!tenuto!=B!tenuto!c | %30
w: |
w: |
 (2:3:2(ag) f3!<(! (Ac)!<)!^c |!>(! [^ce]3!>)! d2 z !tenuto!d!tenuto!c!tenuto!d | %32
w: ||
w: ||
 (2:3:2(ba) g3 fB_d |"^accel.""^accel."!>(! (f3!>)! e2) z !tenuto!c!tenuto!=B!tenuto!c | %34
w: ||
w: ||
 a3 f3!<(! ^f^e!<)!f |!>(! a3!>)! g2 z !tenuto!d!tenuto!e"^počasi"!tenuto!f || %36
w: ||
w: ||
[M:12/8]"^počasi" (2:3:2(cf) (2:3:2(a=b)!ff! (c'3 a2) g |!>(! f3-!>)! !fermata!f2 |] %38
w: ||
w: ||
V:2
 z2 A | A2 A c2!>(! e d2!>)! c | c2 c c3 B2 B | A2 B B3- B2 B | BAG (F3 A2) A | (=B2 A) A3 ^GAB | %6
w: Da|jaz i- mel, i- mel bi|vsa kra- lje- stva, zla-|to, sre- bro _ vse-|ga _ sve- ta _ vse|dra- * go ka- * men-|
 A2 =B c3 A2 c | c2 ^d e3- e2 G | c=BB G3- G2 G ||[M:3/4] G>E E2 E2 | _e>e e2 _AA | d>c d2 d2 | %12
w: je na zem- lji, vse|bi- se- re _ na|dnu _ mor- ja. _ Vse|to bi ho- tel|po- klo- ni- ti z\_ve-|se- lim sr- cem|
 (d2 c2) _B2 | _A2 x2 _B2 | =A>F F2 F2 | F>=A A2 _B_A | (_A2 G)G FG | G4 B2 | (_A2 c2) f2 | %19
w: te- * bi|v\_dar in|se in se pre-|ma- lo zde- lo vse||||
 f2 !tenuto![=Bd]4 | [c=e]6 ||[M:9/8] !tenuto!c!tenuto!=B!tenuto!c | [cf]3 c3 (Ac)A | %23
w: ||Z\_ne- bes bi|str- gal žar- * ko|
 G3 F2 x !tenuto!d!tenuto!^c!tenuto!d | [dg]3 (d2 B) B2 B | B3- B2 x c=Bc | %26
w: soln- ce pri- ne- sel|bi je _ _ _|_ _ vse zvez- de|
 (2:3:2([Ac]_B) c3 d2 d | d3 d2 x eee | e3 ^c3 (Ac)e | %29
w: Lu- * no in av-|ro- ro, sed- me- ro|pi- san ma- * vre|
 !fermata!e3- !fermata!e2 x !tenuto!c!tenuto!=B!tenuto!c | [cf]3 c3 (Ac)A | %31
w: žar! _ Z\_ne- bes bi|str- gal žar- * ko|
 (2:3:2(AG) F2 x !tenuto!d!tenuto!^c!tenuto!d | [dg]3 (d2 B) B2 B | %33
w: sol- * nce, pri- ne- sel|bi je _ te bi|
 B3- B2 x !tenuto!c!tenuto!=B!tenuto!c | (2:3:2([Ac]B) c3 d2 d | %35
w: v\dar _ vse zvez- de,|Lu- * no in av-|
 d3 d2 x !tenuto!d!tenuto!e!tenuto!f ||[M:12/8] (2:3:2(cf) f3 (c3- cd)e | c3- c2 |] %38
w: ro- ro, sed- me- ro|pi- * san ma- * * vre|žar! *|
V:3
 x3 | x9 | x9 | x9 | x9 | x9 | x9 | x9 | x9 ||[M:3/4] x6 | x6 | x6 | x6 | x6 | x6 | x6 | x6 | x6 | %18
 x6 | x6 | x6 ||[M:9/8] x3 | x9 | x9 | x9 | x9 | x9 | x9 | x9 | x9 | x9 | x9 | x9 | x9 | x9 | x9 || %36
[M:12/8] x3 x3 fga x3 | x5 |] %38
V:4
 z2!mf! F, | F,2!<(! F, A,2!<)!!>(! C B,2!>)! A, |!<(! B,2 B,!<)! (B,2!>(! A,) G,2!>)! F, | %3
w: |||
w: |||
!<(! E,2 D, D,2 E,!<)! F,2 F, | E,2 E,!>(! F,2 D, C,2!>)! z | z2 F, F,2 ^F, E,2 E, | %6
w: |||
w: * sre- bro, sre- bro *|* sve- ta, sve- ta,||
!<(! A,2 A,!<)!!>(! E,^F,!>)!^G, A,2 A, |!<(! C2 C!<)!!ff! C3- C2!p! E, | %8
w: ||
w: ||
 A,G,!>(!F, E,3-!>)! E,2 E, ||[M:3/4]!mf! _E,>G, G,_A, _B,_D |!<(! C>!<)!_B,!>(! _A,_B,!>)! CA, | %11
w: |||
w: |||
!<(! _A,>A,!<)! A,2 A,2 | G,4 G,2 | _E,2 z2!<(! =E,2!<)! | F,>=A, A,_E _DC | A,>F, (F,_G,) F,F, | %16
w: |||||
w: |||||
 F,3 F, F,F, | (=E,2 F,2) G,2 | (!tenuto!F,2 !tenuto!_A,2)!ff! !tenuto!C2 | =B,2 !tenuto!G,4 | %20
w: ||||
w: ||||
 G,6 ||[M:9/8]!mf! !tenuto!C!tenuto!=B,!f!!tenuto!C | (2:3:2(C!>(!A,) F,3!>)!!<(! F,2!<)! F, | %23
w: |||
w: |||
!>(! F,3!>)! B,2 z !tenuto!D!tenuto!^C!f!!tenuto!D | (2:3:2(B,!>(!A,) G,3!>)!!<(! G,2!<)! G, | %25
w: ||
w: ||
!>(! G,3-!>)! G,2 z !tenuto!G,!tenuto!G,!tenuto!G, | (2:3:2(F,G,) A,3 C2 C | %27
w: ||
w: ||
!>(! B,3!>)! B,2 z !tenuto!D!tenuto!D!tenuto!D |!fff! ^C3!<(! A,3 (E,A,)!<)!!fff!C | %29
w: ||
w: ||
 (^C3!ppp! =C2) z !tenuto!C!tenuto!=B,!tenuto!C | (2:3:2(CA,) F,3!<(! F,2!<)! F, | %31
w: ||
w: ||
!>(! F,3!>)! B,2 z !tenuto!D!tenuto!^C!tenuto!D | (2:3:2(B,A,) G,3 G,2 G, | %33
w: ||
w: ||
!>(! G,3-!>)! G,2 z !tenuto!G,!tenuto!G,!tenuto!G, | (2:3:2(F,G,) A,3!<(! C2!<)! C | %35
w: ||
w: ||
!>(! B,3!>)! B,2 z !tenuto!D!tenuto!E!tenuto!D ||[M:12/8] C3 (2:3:2(CG,)!ff! (A,B,C C=B,)_B, | %37
w: ||
w: ||
!>(! A,3-!>)! A,2 |] %38
w: |
w: |
V:5
 x2 F, | F,2 F, F,3- F,2 F, | G,2 F, E,3 E,2 D, | C,2 B,, B,,3- B,,2 B,, | C,2 C, (F,3 F,,2) x | %5
w: |||||
 x2 D, D,2 ^D, E,2 E, | A,2 A, A,,3 A,2 A, | F,2 ^F, G,3- G,2 G,, | G,,2 G,, C,3- C,2 C, || %9
w: |||* * * * Vse|
[M:3/4] _B,,>_E, E,F, G,B, | _A,>_E, C,E, A,_G, | F,>_E, _D,2 D,C, | %12
w: to, vse to bi ho- tel|po- klo- ni- * ti z\_ve-||
 (_B,,2!>(! _E,2)!>)! [_E,,E,]2 | (_A,,2 G,,2) _G,,2 | F,,>F, F,C _B,=A, | F,>F, B,,2 B,,C, | %16
w: |* * in|se in se in se pre-|ma- lo zde- lo, *|
 _D,3 D, D,D, | (C,2 =D,2) =E,2 | F,4 F,_E, | D,2 !tenuto!G,,4 | !fermata!C,6 || %21
w: |||||
[M:9/8] !tenuto!C!tenuto!=B,!tenuto!C | [F,,F,]3 A,,3 (C,A,,)F,, | %23
w: ||
 B,,3 B,,2 x !tenuto!D!tenuto!^C!tenuto!D | [G,,G,]3 G,,3 (B,,G,,)E,, | %25
w: ||
 C,3- C,2 x !tenuto!E,!tenuto!E,!tenuto!E, | (2:3:2(F,G,) A,3 A,2 A, | %27
w: ||
 B,3 B,2 x !tenuto!B,!tenuto!B,!tenuto!B, | A,3 A,3 (E,A,)A, | %29
w: ||
 (!fermata!A,3 !fermata!C2) x !tenuto!C!tenuto!=B,!tenuto!C | [F,,F,]3 A,,3 (C,A,,)F,, | %31
w: ||
 B,,3 B,,2 x !tenuto!D!tenuto!^C!tenuto!D | [G,,G,]3 (B,,2 D,) _D,2 D, | %33
w: ||
 C,3- C,2 x !tenuto!E,!tenuto!E,!tenuto!E, | (2:3:2(F,G,) A,3 A,2 A, | %35
w: ||
 B,3 B,2 x !tenuto!D!tenuto!C!tenuto!B, || %36
w: |
[M:12/8] !tenuto!C!tenuto!B,!tenuto!A,/!tenuto!G,/ F,E,/_E,/D,/_D,/ C,3 C,3 | %37
w: |
 [F,,F,]3- !fermata![F,,F,]2 |] %38
w: |

